X:1
T:Rialto, SM
T:Rialto, SM
T:George Frederick Root, 1859
T:Public Domain Courtesy of the Cyber Hymnal™
C:George Frederick Root, 1859
Z:Public Domain
Z:Courtesy of the Cyber Hymnal™
%%score ( 1 2 ) ( 3 4 )
L:1/8
Q:1/4=155
M:3/2
K:C
V:1 treble 
V:2 treble 
V:3 bass 
V:4 bass 
V:1
 C2 E2 F2 | G8 [DG]4 | [EG]6 G2 A2 B2 | c8 [Fc]4 | [Ec]6 [Ec]2 [Ec]2 [Gd]2 | %5
 [Ge]6 [FA]2 [FA]2 [FB]2 | [Gc]6 [CE]2 [CE]2 [CF]2 | G8 [FG]4 | [EG]6 |] %9
V:2
 C2 E2 F2 | G8 x4 | x6 G2 A2 B2 | c8 x4 | x12 | x12 | x12 | (E4 D4) x4 | x6 |] %9
V:3
 C,2 E,2 F,2 | G,8 [G,,B,]4 | [C,C]6 G,2 A,2 B,2 | C8 [F,A,]4 | [C,G,]6 A,2 A,2 [G,B,]2 | %5
 [C,C]6 [F,C]2 [F,C]2 [D,D]2 | [E,C]6 [A,C]2 [A,C]2 [A,C]2 | (C4 B,4) [G,,D]4 | [C,C]4 x2 |] %9
V:4
 C,2 E,2 F,2 | G,8 x4 | x6 G,2 A,2 B,2 | C8 x4 | x6 A,2 A,2 x2 | x12 | x12 | G,8 x4 | x6 |] %9

